icons/global/user-settings/linux-settings.svg

<svg width="24" height="24" viewBox="0 0 24 24" fill="none" xmlns="http://www.w3.org/2000/svg">
<path d="M14.62 8.35C14.2 8.63 12.87 9.39 12.67 9.54C12.28 9.85 11.92 9.83 11.53 9.53C11.33 9.37 10 8.61 9.58002 8.34C9.10002 8.03 9.13002 7.64 9.66002 7.42C11.3 6.73 12.94 6.78 14.57 7.45C15.06 7.66 15.08 8.05 14.62 8.35ZM21.84 15.63C20.91 13.54 19.64 11.64 18 9.97C17.493 9.44337 17.1282 8.79642 16.94 8.09C16.84 7.76 16.77 7.42 16.7 7.08C16.5 6.2 16.41 5.3 16 4.47C15.27 2.89 14 2.07 12.16 2C10.35 2.05 9.00002 2.81 8.21002 4.4C8.00002 4.83 7.85002 5.28 7.75002 5.74C7.58002 6.5 7.43002 7.29 7.25002 8.06C7.10002 8.71 6.80002 9.27 6.29002 9.77C4.68002 11.34 3.39002 13.14 2.41002 15.12C2.27002 15.41 2.13002 15.7 2.04002 16C1.85002 16.66 2.33002 17.12 3.03002 16.96C3.47002 16.87 3.91002 16.78 4.33002 16.65C4.74002 16.5 4.90002 16.6 5.00002 17C5.65002 19.15 7.07002 20.66 9.24002 21.5C13.36 23.06 18.17 20.84 19.21 16.92C19.28 16.65 19.38 16.55 19.68 16.65C20.14 16.79 20.61 16.89 21.08 17C21.57 17.09 21.93 16.84 22 16.36C22.03 16.1 21.94 15.87 21.84 15.63Z" fill="black"/>
</svg>

<svg xmlns="http://www.w3.org/2000/svg" width="24" height="24" fill="none">
  <path fill="#000" d="M14.62 8.35c-.42.28-1.75 1.04-1.95 1.19-.39.31-.75.29-1.14-.01-.2-.16-1.53-.92-1.95-1.19-.48-.31-.45-.7.08-.92 1.64-.69 3.28-.64 4.91.03.49.21.51.6.05.9Zm7.22 7.28c-.93-2.09-2.2-3.99-3.84-5.66a4.31 4.31 0 0 1-1.06-1.88c-.1-.33-.17-.67-.24-1.01-.2-.88-.29-1.78-.7-2.61-.73-1.58-2-2.4-3.84-2.47-1.81.05-3.16.81-3.95 2.4-.21.43-.36.88-.46 1.34-.17.76-.32 1.55-.5 2.32-.15.65-.45 1.21-.96 1.71-1.61 1.57-2.9 3.37-3.88 5.35-.14.29-.28.58-.37.88-.19.66.29 1.12.99.96.44-.09.88-.18 1.3-.31.41-.15.57-.05.67.35.65 2.15 2.07 3.66 4.24 4.5 4.12 1.56 8.93-.66 9.97-4.58.07-.27.17-.37.47-.27.46.14.93.24 1.4.35.49.09.85-.16.92-.64.03-.26-.06-.49-.16-.73"/>
</svg>
